svgs/regular/bed.svg

<svg xmlns="http://www.w3.org/2000/svg" viewBox="0 0 640 512"><!--! Font Awesome Pro 6.6.0 by @fontawesome - https://fontawesome.com License - https://fontawesome.com/license (Commercial License) Copyright 2024 Fonticons, Inc. --><path d="M48 56c0-13.3-10.7-24-24-24S0 42.7 0 56L0 360l0 96c0 13.3 10.7 24 24 24s24-10.7 24-24l0-72 264 0 280 0 0 72c0 13.3 10.7 24 24 24s24-10.7 24-24l0-96 0-112c0-66.3-53.7-120-120-120l-176 0c-30.9 0-56 25.1-56 56l0 152L48 336 48 56zM592 248l0 88-256 0 0-152c0-4.4 3.6-8 8-8l176 0c39.8 0 72 32.2 72 72zM128 216a40 40 0 1 1 80 0 40 40 0 1 1 -80 0zm128 0A88 88 0 1 0 80 216a88 88 0 1 0 176 0z"/></svg>

<svg xmlns="http://www.w3.org/2000/svg" viewBox="0 0 640 512"><!--! Font Awesome Pro 6.5.2 by @fontawesome - https://fontawesome.com License - https://fontawesome.com/license (Commercial License) Copyright 2024 Fonticons, Inc. --><path d="M48 56c0-13.3-10.7-24-24-24S0 42.7 0 56V360v96c0 13.3 10.7 24 24 24s24-10.7 24-24V384H312 592v80c0 13.3 10.7 24 24 24s24-10.7 24-24V360 248c0-66.3-53.7-120-120-120H344c-30.9 0-56 25.1-56 56V336H48V56zM592 248v88H336V184c0-4.4 3.6-8 8-8H520c39.8 0 72 32.2 72 72zM128 216a40 40 0 1 1 80 0 40 40 0 1 1 -80 0zm128 0A88 88 0 1 0 80 216a88 88 0 1 0 176 0z"/></svg>
